dist/assets/img/icons/urea.svg

<svg width="76" height="76" viewBox="0 0 76 76" fill="none" xmlns="http://www.w3.org/2000/svg">
<g filter="url(#filter0_b_1_26)">
<circle cx="38" cy="38" r="38" fill="white" fill-opacity="0.75"/>
</g>
<path d="M41.2654 48.8809C39.3919 49.2411 37.5704 49.2205 35.6657 48.7368C35.7594 48.8809 35.7906 48.9426 35.8322 48.9838C37.0396 50.2703 37.5184 51.8348 37.5704 53.5331C37.6121 54.6858 37.5392 55.8489 37.4976 57.0016C37.4768 57.5883 37.0292 57.9897 36.4984 57.9691C35.9675 57.9485 35.572 57.5163 35.5512 56.9399C35.5096 55.7562 35.52 54.5726 35.3951 53.3993C35.1973 51.5981 34.2918 50.2189 32.6577 49.344C30.7737 48.3354 28.9835 47.2135 27.4326 45.7313C25.6007 43.9816 24.3621 41.9334 23.977 39.4118C23.8105 38.2899 23.8105 37.1783 24.0291 36.077C24.154 35.4492 24.0082 34.8934 23.696 34.3376C23.1964 33.4421 22.6864 32.5364 22.2492 31.6101C21.3957 29.8397 20.9898 27.9665 21.0002 26.0006C21.0106 24.4979 21.0106 22.9952 21.021 21.4822C21.0314 20.628 21.6351 20.0104 22.4366 20.0001C23.238 19.9898 23.8833 20.6485 23.8937 21.5028C23.9042 22.0277 23.8729 22.5527 23.8729 23.0879C23.8625 24.323 23.8625 25.5581 23.8521 26.7932C23.8313 28.4708 24.4662 29.953 25.226 31.4042C25.4238 31.7747 25.7569 31.7747 26.0275 31.4145C27.1724 29.8809 28.6504 28.7487 30.3366 27.8636C36.6961 24.4979 43.7635 25.3522 49.0301 29.4177C49.7379 29.9633 50.3104 30.6837 50.9245 31.3527C51.32 31.785 51.5906 31.785 51.8612 31.2807C52.746 29.6236 53.2664 27.8945 53.1831 26.0006C53.1207 24.5082 53.1311 23.0158 53.1207 21.5234C53.1207 20.4736 54.0783 19.7634 55.0254 20.0928C55.5979 20.2883 55.9726 20.7103 55.9726 21.297C55.9934 23.2937 56.035 25.2905 55.9414 27.2769C55.8373 29.3354 55.0775 31.2292 54.0991 33.0407C53.8597 33.4833 53.6099 33.9156 53.3497 34.3479C53.0166 34.9036 52.9021 35.4697 53.0062 36.1182C53.6619 40.1631 52.2047 43.4258 49.2071 46.1122C47.906 47.2752 46.4489 48.2118 44.9292 49.0661C44.4296 49.344 43.93 49.6219 43.4824 49.9719C42.3583 50.8261 41.7859 52.0201 41.6402 53.3787C41.5153 54.5211 41.5153 55.6842 41.484 56.8369C41.4632 57.5368 41.1197 57.9897 40.516 58C39.9436 58 39.5272 57.5677 39.5168 56.8987C39.496 55.5607 39.444 54.2227 39.5168 52.8949C39.6001 51.4643 40.1309 50.1674 41.1197 49.0867C41.1926 49.0044 41.2238 48.9426 41.2654 48.8809ZM50.758 37.9914C50.758 37.9296 50.758 37.8576 50.758 37.7958C50.7371 37.5694 50.7267 37.3327 50.6955 37.1062C50.3728 34.7698 49.4465 32.7011 47.5417 31.2292C45.0749 29.3354 42.2126 28.3473 39.1005 28.1827C36.0092 28.0283 33.1989 28.9752 30.5343 30.4779C27.3077 32.2996 25.226 36.9416 26.8602 40.9556C26.9851 41.2644 27.162 41.4703 27.4743 41.6041C30.3574 42.8906 33.2926 43.0553 36.2798 42.0261C37.8098 41.4908 39.3087 40.8836 40.8387 40.3484C42.4416 39.7823 44.0965 39.5661 45.7827 39.9058C46.9589 40.1425 48.0309 40.6263 49.051 41.2232C49.5714 41.5217 50.0294 41.3776 50.2167 40.8527C50.5394 39.9264 50.758 38.9795 50.758 37.9914Z" fill="#00A7B5"/>
<defs>
<filter id="filter0_b_1_26" x="-15" y="-15" width="106" height="106" filterUnits="userSpaceOnUse" color-interpolation-filters="sRGB">
<feFlood flood-opacity="0" result="BackgroundImageFix"/>
<feGaussianBlur in="BackgroundImageFix" stdDeviation="7.5"/>
<feComposite in2="SourceAlpha" operator="in" result="effect1_backgroundBlur_1_26"/>
<feBlend mode="normal" in="SourceGraphic" in2="effect1_backgroundBlur_1_26" result="shape"/>
</filter>
</defs>
</svg>

<svg width="76" height="76" fill="none" xmlns="http://www.w3.org/2000/svg"><g filter="url(#filter0_b_1_26)"><circle cx="38" cy="38" r="38" fill="#fff" fill-opacity=".75"/></g><path d="M41.265 48.88c-1.873.361-3.695.34-5.6-.143.094.144.126.206.167.247 1.208 1.286 1.686 2.85 1.738 4.55.042 1.152-.03 2.315-.072 3.468-.021.586-.469.988-1 .967-.53-.02-.926-.453-.947-1.03-.041-1.183-.031-2.366-.156-3.54-.198-1.8-1.103-3.18-2.737-4.055-1.884-1.009-3.675-2.13-5.225-3.613-1.832-1.75-3.07-3.798-3.456-6.32-.166-1.121-.166-2.233.052-3.334.125-.628-.02-1.184-.333-1.74-.5-.895-1.01-1.8-1.447-2.727A12.595 12.595 0 0121 26c.01-1.502.01-3.005.021-4.518.01-.854.614-1.472 1.416-1.482.801-.01 1.446.648 1.457 1.503.01.525-.021 1.05-.021 1.585-.01 1.235-.01 2.47-.02 3.705-.022 1.678.613 3.16 1.373 4.611.198.37.53.37.802.01 1.144-1.533 2.622-2.665 4.309-3.55 6.36-3.366 13.427-2.512 18.693 1.554.708.545 1.28 1.266 1.895 1.935.395.432.666.432.936-.072.885-1.657 1.405-3.386 1.322-5.28-.062-1.493-.052-2.985-.062-4.478 0-1.05.957-1.76 1.904-1.43.573.195.948.617.948 1.204.02 1.997.062 3.994-.032 5.98-.104 2.058-.864 3.952-1.842 5.764-.24.442-.49.875-.75 1.307a2.51 2.51 0 00-.343 1.77c.656 4.045-.801 7.308-3.799 9.994-1.301 1.163-2.758 2.1-4.278 2.954-.5.278-.999.556-1.447.906-1.124.854-1.696 2.048-1.842 3.407-.125 1.142-.125 2.305-.156 3.458-.02.7-.364 1.153-.968 1.163-.572 0-.989-.432-1-1.101-.02-1.338-.072-2.676 0-4.004a6.046 6.046 0 011.604-3.808c.073-.083.104-.144.145-.206zm9.493-10.889v-.195c-.02-.227-.031-.463-.063-.69-.322-2.336-1.248-4.405-3.153-5.877-2.467-1.894-5.33-2.882-8.442-3.046-3.09-.155-5.901.792-8.566 2.295-3.226 1.822-5.308 6.464-3.674 10.478.125.308.302.514.614.648 2.883 1.287 5.819 1.451 8.806.422 1.53-.535 3.029-1.142 4.559-1.678 1.603-.566 3.258-.782 4.944-.442 1.176.236 2.248.72 3.268 1.317.52.299.978.155 1.166-.37.322-.927.541-1.873.541-2.862z" fill="#00A7B5"/><defs><filter id="filter0_b_1_26" x="-15" y="-15" width="106" height="106" filterUnits="userSpaceOnUse" color-interpolation-filters="sRGB"><feFlood flood-opacity="0" result="BackgroundImageFix"/><feGaussianBlur in="BackgroundImageFix" stdDeviation="7.5"/><feComposite in2="SourceAlpha" operator="in" result="effect1_backgroundBlur_1_26"/><feBlend in="SourceGraphic" in2="effect1_backgroundBlur_1_26" result="shape"/></filter></defs></svg>
